static/assets/img/icons/theme/design/saturation.svg

<svg height="24" viewBox="0 0 24 24" width="24" xmlns="http://www.w3.org/2000/svg"><g fill="none" fill-rule="evenodd"><path d="m0 0h24v24h-24z" opacity="0"/><g fill="#000"><path d="m7 14c0 2.7614237 2.23857625 5 5 5 2.7614237 0 5-2.2385763 5-5 0-1.6257837-1.6297087-4.13147183-5-7.30077018-3.37029128 3.16929835-5 5.67498648-5 7.30077018zm5 7c-3.86599325 0-7-3.1340068-7-7 0-2.5773288 2.33333333-5.91066217 7-10 4.6666667 4.08933783 7 7.4226712 7 10 0 3.8659932-3.1340068 7-7 7z" fill-rule="nonzero"/><path d="m12 4c4.6666667 4.08933783 7 7.4226712 7 10 0 3.8659932-3.1340068 7-7 7z"/></g></g></svg>

<svg width="24px" height="24px" viewBox="0 0 24 24" version="1.1" xmlns="http://www.w3.org/2000/svg" xmlns:xlink="http://www.w3.org/1999/xlink">
    <title>Icon For Saturation</title>
    <g stroke="none" stroke-width="1" fill="none" fill-rule="evenodd">
        <rect opacity="0" x="0" y="0" width="24" height="24"></rect>
        <path d="M7,14 C7,16.7614237 9.23857625,19 12,19 C14.7614237,19 17,16.7614237 17,14 C17,12.3742163 15.3702913,9.86852817 12,6.69922982 C8.62970872,9.86852817 7,12.3742163 7,14 Z M12,21 C8.13400675,21 5,17.8659932 5,14 C5,11.4226712 7.33333333,8.08933783 12,4 C16.6666667,8.08933783 19,11.4226712 19,14 C19,17.8659932 15.8659932,21 12,21 Z" fill="#000000" fill-rule="nonzero"></path>
        <path d="M12,4 C16.6666667,8.08933783 19,11.4226712 19,14 C19,17.8659932 15.8659932,21 12,21 L12,4 Z" fill="#000000"></path>
    </g>
</svg>
